images/companyLogos/blazon.svg

<svg width="120" height="29" viewBox="0 0 120 29" fill="none" xmlns="http://www.w3.org/2000/svg">
<path fill-rule="evenodd" clip-rule="evenodd" d="M32.651 0.313138C32.2684 -0.170289 31.5477 0.00765973 31.0435 0.176711C30.1253 0.594547 29.2203 1.04245 28.315 1.49048L28.3149 1.4905C27.5624 1.86294 26.8097 2.23547 26.0491 2.59088C25.9578 2.64237 25.8572 2.69334 25.7532 2.74601L25.7531 2.74602C25.1981 3.02707 24.5476 3.35648 24.7174 4.07082C24.8531 4.48831 25.0967 4.86499 25.3398 5.24075C25.7182 5.82597 26.0953 6.40896 26.061 7.14043C26.0857 12.2713 26.0773 17.4021 26.0688 22.5329L26.0669 23.7163C26.1231 24.4936 25.7258 25.1137 25.3279 25.7349L25.3279 25.7349C25.1169 26.0643 24.9058 26.3939 24.7619 26.7474C24.6463 27.1567 24.6136 27.9752 25.2335 27.9515C27.2143 28.0214 29.1981 28.0081 31.1817 27.9948H31.1818H31.1819H31.182H31.1821C31.9753 27.9895 32.7685 27.9841 33.5615 27.9841C34.1725 28.1146 34.6559 27.5452 34.5046 26.958C34.3378 26.5195 34.0494 26.1342 33.762 25.75C33.3086 25.1442 32.8574 24.5411 32.8883 23.7371C32.8681 19.1484 32.8717 14.5586 32.8753 9.96835C32.8776 7.12671 32.8798 4.28491 32.8764 1.44311C32.8671 1.3519 32.8633 1.25739 32.8595 1.16197C32.8476 0.863351 32.8353 0.555881 32.651 0.313138ZM1.6901 1.68736H1.6901C1.1632 1.68651 0.628403 1.68566 0.142758 1.90873C-0.230894 2.6198 0.201222 3.25306 0.609972 3.85208L0.609973 3.85208C0.736548 4.03758 0.860882 4.21979 0.958355 4.40001C1.47398 5.09636 1.47512 5.97612 1.4762 6.80875V6.80875V6.80876V6.80876V6.80876C1.47632 6.90524 1.47645 7.00108 1.47737 7.09593C1.4638 9.6313 1.467 12.1667 1.47019 14.7017V14.7018V14.7018V14.7018V14.7018C1.47398 17.7062 1.47777 20.7102 1.45364 23.7134C1.47415 24.504 1.05707 25.1545 0.646147 25.7955C0.52217 25.9889 0.398753 26.1814 0.288082 26.3766C-0.0707809 26.8393 -0.150858 27.9011 0.617287 27.9545C2.17123 28.0209 3.72734 28.0091 5.28366 27.9973C6.29966 27.9896 7.31574 27.9819 8.33136 27.996C8.55995 27.9964 8.78922 27.9972 9.019 27.998H9.01902C12.4502 28.01 15.998 28.0225 19.1862 26.6021C21.0695 25.7954 22.7926 24.2531 23.2642 22.1919C23.5726 20.4539 23.4896 18.5173 22.4338 17.0284C21.2089 15.1837 19.0646 14.1842 16.9263 13.8669C17.8961 13.4398 18.8778 12.9504 19.5747 12.1289C21.5233 9.88082 21.2504 6.09052 19.0557 4.10046C17.1695 2.26759 14.4083 1.82272 11.8844 1.71595C10.1257 1.68549 8.3671 1.6897 6.60846 1.6939C5.11361 1.69747 3.61877 1.70104 2.12392 1.68333C1.98072 1.68782 1.83572 1.68759 1.69011 1.68736H1.69011H1.69011H1.6901H1.6901ZM8.2928 5.85029C8.35508 4.97538 9.16178 4.39111 10.0041 4.40001C11.2467 4.31697 12.6229 4.51864 13.5601 5.40838C14.6841 6.42269 15.0459 8.01236 15.0282 9.46858C15.0282 10.7824 14.2867 12.206 12.961 12.5945C11.8607 12.8644 10.6892 12.8822 9.57996 12.642C8.70505 12.4462 8.22459 11.5387 8.24831 10.6935C8.24573 10.3421 8.24076 9.9904 8.23578 9.63861C8.2179 8.37512 8.2 7.10998 8.2928 5.85029ZM8.23667 18.1044C8.24209 17.2246 8.2475 16.3448 8.23942 15.4654L8.43937 15.4668C10.0173 15.4768 11.6744 15.4873 13.0885 16.284C15.1527 17.4496 16.5971 19.8578 16.2441 22.2631C16.0899 23.657 15.0074 24.9264 13.6046 25.1666C12.5458 25.3386 11.4514 25.3327 10.3896 25.1933C9.01052 24.9768 8.30763 23.5057 8.26314 22.2364C8.2197 20.8606 8.22818 19.4826 8.23667 18.1044ZM42.1238 10.1833C44.3926 9.5872 47.0233 9.65838 48.9629 11.1265C49.3763 9.87867 50.6565 10.0422 51.7337 10.1799C51.9008 10.2012 52.0631 10.222 52.2164 10.2367C52.6536 10.3201 53.1009 10.3717 53.5487 10.4234C54.4072 10.5226 55.2678 10.622 56.0631 10.9455C56.8614 11.6842 56.1222 12.6106 55.5971 13.2686L55.5292 13.3538C54.7118 14.2849 54.7345 15.5158 54.7562 16.6943C54.7612 16.961 54.766 17.225 54.7611 17.4822C54.7792 18.3624 54.7708 19.2435 54.7625 20.1249C54.7503 21.4144 54.7381 22.7043 54.8086 23.9921C54.8423 24.6199 55.1913 25.1358 55.5375 25.6476C55.9519 26.2601 56.3622 26.8667 56.2232 27.6519C56.1224 27.7231 55.9207 27.8655 55.8169 27.9367C54.4382 28.0322 53.0516 28.0149 51.6663 27.9976H51.6662H51.6661H51.666C51.1591 27.9912 50.6524 27.9849 50.1463 27.9841C49.6161 28.0949 49.3668 27.6814 49.1305 27.2896C49.0694 27.1883 49.0091 27.0884 48.9451 26.9995C45.6561 29.3988 40.6468 28.4557 38.0458 25.4483C36.0587 23.2418 35.6643 20.0446 36.0735 17.2064C36.5332 13.9647 39.0097 11.1472 42.1238 10.1833ZM44.5528 11.8264C42.9364 12.3157 42.4916 14.1872 42.367 15.6671C42.2098 18.7397 42.7674 21.8834 44.1138 24.6594C44.538 25.4869 45.2468 26.4389 46.2967 26.3529C47.5275 26.3737 48.2185 25.0509 48.349 23.9832C48.4889 22.7667 48.47 21.5411 48.4511 20.3155C48.4396 19.5661 48.4281 18.8167 48.4528 18.0694L48.4548 17.8353C48.4685 16.2717 48.4834 14.589 47.5542 13.2559C46.9314 12.2831 45.7421 11.4764 44.5528 11.8264ZM91.288 10.7083C89.2268 9.77404 86.8838 9.71472 84.6772 10.0054C82.2334 10.4324 79.9823 11.8264 78.4639 13.7779C76.545 16.2899 76.2958 19.84 77.5237 22.7109C78.5973 25.1073 80.7831 26.8956 83.2388 27.7498C86.9105 28.9243 91.3088 28.3963 94.1648 25.653C96.7629 23.3367 97.5548 19.4366 96.4752 16.1891C95.6922 13.6919 93.6399 11.7522 91.288 10.7083ZM83.654 13.9232C83.829 13.1551 84.1404 12.2861 84.9145 11.9361C86.086 11.3074 87.2842 12.3573 87.8269 13.3419C89.4996 16.287 90.2292 19.7451 90.0424 23.1172C89.9623 24.2116 89.7161 25.4691 88.7522 26.1334C87.993 26.5546 86.9639 26.3677 86.3855 25.7242C84.9946 24.259 84.4133 22.2453 83.9832 20.3234C83.5235 18.2325 83.2091 16.0438 83.654 13.9232ZM104.364 9.97869C104.806 9.81261 105.494 9.68508 105.755 10.2011C105.896 10.6809 105.885 11.1825 105.874 11.6814C105.869 11.895 105.864 12.108 105.871 12.3187C108.463 8.57586 114.967 9.15123 117.064 13.1254C118.01 14.8215 118.151 16.754 118.29 18.6587V18.6588C118.326 19.1488 118.361 19.637 118.41 20.1188C118.457 20.5995 118.481 21.0834 118.504 21.5674L118.504 21.5677C118.552 22.5557 118.599 23.5438 118.846 24.5052C118.958 24.8922 119.172 25.2588 119.385 25.6249C119.785 26.3138 120.185 27.0008 119.908 27.818C119.423 28.0456 118.885 28.0372 118.354 28.0289C118.158 28.0258 117.964 28.0228 117.773 28.0316C116.856 28.0087 115.939 28.0169 115.021 28.025H115.021H115.021C113.798 28.0359 112.575 28.0468 111.355 27.9841C110.833 27.9485 110.628 27.4295 110.767 26.9728C110.885 26.5401 111.127 26.1544 111.368 25.7698C111.706 25.2316 112.042 24.6956 112.034 24.0366C112.039 22.7433 111.952 21.4533 111.865 20.1639C111.811 19.3629 111.757 18.5622 111.725 17.761C111.717 17.6435 111.709 17.5255 111.701 17.4072L111.701 17.4068V17.4067C111.606 16.0293 111.508 14.6078 110.874 13.3597C110.293 12.203 108.513 12.0755 107.719 13.0691C106.915 14.1605 106.888 15.5811 106.885 16.8801C106.894 17.8977 106.891 18.9158 106.888 19.9342V19.9345C106.884 21.1958 106.88 22.4575 106.9 23.7193C106.85 24.4757 107.285 25.071 107.714 25.6588C108.222 26.3547 108.722 27.04 108.401 27.9693C106.752 28.0341 105.103 28.0279 103.453 28.0216H103.453C102.387 28.0175 101.322 28.0135 100.257 28.0286C100.144 28.0212 100.026 28.0217 99.905 28.0223C99.4438 28.0243 98.9558 28.0264 98.6877 27.5867C98.5497 26.8278 98.9894 26.2674 99.4351 25.6993C99.775 25.2661 100.118 24.8284 100.212 24.2946C100.361 23.4458 100.345 22.5835 100.329 21.7223V21.7222C100.321 21.2986 100.313 20.8753 100.325 20.4539C100.312 19.9946 100.32 19.5339 100.329 19.0733C100.346 18.1452 100.363 17.2176 100.206 16.3018C100.115 15.7169 99.6827 15.3167 99.2548 14.9208C98.7629 14.4656 98.2769 14.016 98.3229 13.2974C98.6192 12.7692 99.168 12.5042 99.7021 12.2462C99.8578 12.1711 100.012 12.0965 100.159 12.0162C100.797 11.7265 101.423 11.4091 102.048 11.0917C102.812 10.704 103.577 10.3162 104.364 9.97869ZM58.9583 11.5384C58.9134 11.6708 58.8701 11.7982 58.8242 11.9124C58.736 12.2127 58.6332 12.5111 58.5303 12.81C58.2732 13.5562 58.015 14.3058 57.979 15.0977C58.1718 16.0705 59.4471 15.9904 60.1055 15.5574C60.6938 15.1464 61.152 14.577 61.6093 14.0088C62.2607 13.1993 62.9102 12.3922 63.9314 12.0489C64.7519 11.8835 65.5888 11.9058 66.4231 11.928C66.7708 11.9372 67.1181 11.9465 67.4637 11.9421C65.9763 14.1739 64.5075 16.4175 63.0386 18.6612C61.5698 20.9048 60.101 23.1484 58.6137 25.3802C58.1747 25.9941 57.8782 26.786 58.1896 27.5274C58.516 28.0036 59.0822 28.0024 59.609 28.0013C59.7187 28.0011 59.8267 28.0008 59.9305 28.0049C62.0941 27.9884 64.2583 27.9923 66.4226 27.9962C68.925 28.0007 71.4275 28.0053 73.9291 27.9782C74.5661 28.0185 74.7793 27.3573 74.9439 26.8467C74.9609 26.7939 74.9774 26.7427 74.9938 26.694C75.1102 26.2297 75.2488 25.7693 75.3874 25.3087C75.666 24.3836 75.9447 23.4577 76.0437 22.4974C75.8183 21.7085 74.7121 21.9754 74.1219 22.1593C73.4333 22.6155 72.8965 23.2619 72.3607 23.9071C71.5974 24.8263 70.836 25.7431 69.6406 26.1038C68.7368 26.2878 67.8142 26.2655 66.8936 26.2433C66.4486 26.2325 66.0042 26.2218 65.5626 26.2343C68.4068 21.9042 71.248 17.5742 74.0774 13.2322C74.134 13.1382 74.1933 13.0428 74.2534 12.946C74.7166 12.2011 75.2284 11.378 74.9108 10.4829C74.6614 10.1999 74.2861 10.1942 73.9267 10.1887C73.8116 10.187 73.6982 10.1853 73.591 10.1745C71.5997 10.1864 69.6084 10.1835 67.6171 10.1807C65.1478 10.1771 62.6785 10.1736 60.2093 10.1982C59.4307 10.1466 59.1749 10.9004 58.9583 11.5384Z" fill="black"/>
</svg>

<svg fill="none" xmlns="http://www.w3.org/2000/svg" viewBox="0 0 120 29">
  <path
    fill-rule="evenodd"
    clip-rule="evenodd"
    d="M32.651.313c-.383-.483-1.103-.305-1.608-.136-.918.418-1.823.865-2.728 1.313-.753.373-1.505.745-2.266 1.1a7.664 7.664 0 0 1-.296.156c-.555.281-1.205.61-1.036 1.325.136.417.38.794.623 1.17.378.585.755 1.168.721 1.9.025 5.13.016 10.261.008 15.392l-.002 1.183c.056.778-.341 1.398-.74 2.019-.21.33-.421.659-.565 1.012-.116.41-.148 1.228.471 1.204 1.981.07 3.965.057 5.949.044.793-.006 1.587-.01 2.38-.01.61.13 1.094-.44.943-1.027-.167-.438-.456-.824-.743-1.208-.453-.606-.905-1.209-.874-2.013-.02-4.589-.016-9.178-.013-13.769.003-2.841.005-5.683.001-8.525a4.605 4.605 0 0 1-.017-.281c-.011-.299-.024-.606-.208-.849ZM1.691 1.687c-.528 0-1.063-.001-1.548.222-.374.71.058 1.344.467 1.943.127.186.25.368.348.548.516.696.517 1.576.518 2.409l.001.287c-.013 2.535-.01 5.07-.007 7.606.004 3.004.008 6.008-.016 9.011.02.791-.397 1.441-.808 2.082-.124.194-.247.386-.358.582-.359.462-.439 1.524.33 1.578 1.553.066 3.11.054 4.666.042a142.03 142.03 0 0 1 3.047-.001l.688.002c3.431.012 6.979.024 10.167-1.396 1.884-.807 3.607-2.349 4.078-4.41.309-1.738.226-3.675-.83-5.164-1.225-1.844-3.37-2.844-5.508-3.161.97-.427 1.952-.917 2.649-1.738 1.948-2.248 1.675-6.038-.52-8.029-1.886-1.832-4.647-2.277-7.17-2.384-1.76-.03-3.518-.026-5.277-.022-1.494.003-2.99.007-4.484-.01-.143.004-.288.004-.434.003ZM8.292 5.85c.062-.875.869-1.459 1.711-1.45 1.243-.083 2.619.119 3.556 1.008 1.124 1.015 1.486 2.604 1.468 4.06 0 1.314-.741 2.738-2.067 3.127-1.1.27-2.272.287-3.381.047-.875-.196-1.355-1.103-1.332-1.948-.002-.352-.007-.704-.012-1.055-.018-1.264-.036-2.529.057-3.789Zm-.056 12.254c.005-.88.01-1.76.002-2.639l.2.002c1.578.01 3.235.02 4.65.817 2.064 1.166 3.508 3.574 3.155 5.98-.154 1.393-1.237 2.662-2.64 2.903a11.123 11.123 0 0 1-3.214.026c-1.38-.216-2.082-1.687-2.127-2.957a109.577 109.577 0 0 1-.026-4.132Zm33.887-7.92c2.269-.597 4.9-.526 6.839.943.413-1.248 1.694-1.085 2.77-.947.168.021.33.042.483.057.438.083.885.135 1.333.186.858.1 1.719.199 2.514.522.798.74.06 1.666-.466 2.324l-.068.085c-.817.93-.795 2.162-.773 3.34.005.267.01.531.005.788.018.88.01 1.762.002 2.643-.013 1.29-.025 2.58.046 3.867.033.628.382 1.144.729 1.656.414.612.824 1.219.685 2.004l-.406.285c-1.379.095-2.765.078-4.15.06h-.001c-.507-.006-1.014-.012-1.52-.013-.53.11-.78-.303-1.016-.694a4.332 4.332 0 0 0-.185-.29c-3.289 2.399-8.298 1.456-10.9-1.552-1.986-2.206-2.38-5.403-1.971-8.242.46-3.241 2.936-6.059 6.05-7.023Zm2.429 1.642c-1.617.49-2.061 2.361-2.186 3.841-.157 3.073.4 6.216 1.747 8.992.424.828 1.133 1.78 2.183 1.694 1.23.02 1.922-1.302 2.052-2.37.14-1.216.121-2.442.102-3.668-.011-.749-.023-1.498.002-2.246l.002-.234c.014-1.563.028-3.246-.9-4.58-.624-.972-1.813-1.779-3.002-1.429Zm46.735-1.118c-2.061-.934-4.404-.993-6.61-.703-2.445.427-4.696 1.821-6.214 3.773-1.919 2.512-2.168 6.062-.94 8.933 1.073 2.396 3.26 4.185 5.715 5.039 3.671 1.174 8.07.646 10.926-2.097 2.598-2.316 3.39-6.216 2.31-9.464-.783-2.497-2.835-4.437-5.187-5.48Zm-7.634 3.215c.175-.768.486-1.637 1.26-1.987 1.172-.629 2.37.421 2.913 1.406 1.673 2.945 2.402 6.403 2.215 9.775-.08 1.095-.326 2.352-1.29 3.016-.759.422-1.788.235-2.367-.409-1.39-1.465-1.972-3.479-2.402-5.4-.46-2.091-.774-4.28-.329-6.4Zm20.71-3.944c.442-.166 1.13-.294 1.391.222.141.48.13.981.119 1.48-.005.214-.01.427-.003.638 2.592-3.743 9.096-3.168 11.193.806.946 1.697 1.087 3.629 1.226 5.534.036.49.071.978.12 1.46.047.48.071.964.094 1.448.048.989.095 1.977.342 2.938.112.387.326.754.539 1.12.4.689.8 1.376.523 2.193-.485.228-1.023.22-1.554.21a9.44 9.44 0 0 0-.581.004c-.917-.023-1.834-.015-2.752-.007-1.223.01-2.446.022-3.666-.04-.522-.037-.727-.555-.588-1.012.118-.433.36-.819.601-1.203.338-.538.674-1.074.666-1.733.005-1.294-.082-2.584-.169-3.873-.054-.801-.108-1.602-.14-2.403l-.024-.354c-.095-1.378-.193-2.8-.827-4.047-.581-1.157-2.361-1.284-3.155-.29-.804 1.09-.831 2.511-.834 3.81.009 1.018.006 2.036.003 3.054-.004 1.262-.008 2.523.012 3.785-.05.757.385 1.352.814 1.94.508.696 1.008 1.381.687 2.31-1.649.065-3.298.059-4.948.053a177.318 177.318 0 0 0-3.196.007 5.074 5.074 0 0 0-.352-.007c-.461.002-.95.004-1.217-.435-.138-.76.301-1.32.747-1.888.34-.433.683-.87.777-1.404.149-.85.133-1.712.117-2.573-.008-.423-.016-.847-.004-1.268-.013-.46-.005-.92.004-1.38.017-.929.034-1.856-.123-2.772-.091-.585-.523-.985-.951-1.381-.492-.455-.978-.905-.932-1.624.296-.528.845-.793 1.38-1.05.155-.076.309-.15.456-.23.638-.29 1.264-.608 1.889-.925.764-.388 1.529-.776 2.316-1.113Zm-45.406 1.56c-.045.132-.088.26-.134.373-.088.3-.19.6-.294.898-.257.746-.515 1.496-.551 2.288.193.972 1.468.892 2.127.46.588-.412 1.046-.981 1.503-1.55.652-.809 1.301-1.616 2.322-1.96.82-.165 1.658-.142 2.492-.12.348.01.695.018 1.04.014-1.487 2.232-2.956 4.476-4.424 6.72a983.339 983.339 0 0 1-4.425 6.718c-.44.614-.736 1.406-.424 2.147.326.477.892.475 1.419.474.11 0 .218 0 .322.004 2.163-.017 4.327-.013 6.492-.009 2.502.005 5.004.01 7.506-.018.637.04.85-.62 1.015-1.131l.05-.153c.116-.464.255-.925.393-1.385.279-.925.558-1.851.657-2.812-.226-.788-1.332-.522-1.922-.338-.689.457-1.225 1.103-1.761 1.748-.764.92-1.525 1.836-2.72 2.197-.904.184-1.827.162-2.747.14-.445-.011-.89-.022-1.331-.01 2.844-4.33 5.685-8.66 8.514-13.002l.176-.286c.464-.745.975-1.568.658-2.463-.25-.283-.625-.289-.984-.294a3.993 3.993 0 0 1-.336-.014c-1.991.011-3.983.008-5.974.006-2.47-.004-4.939-.007-7.408.017-.778-.051-1.034.702-1.25 1.34Z"
    fill="#000"
  />
</svg>
